X: 31584
T: Palm Tree, The
R: reel
M: 4/4
K: Dmajor
dF~F2 d2fa|gbag fd~d2|eAce dcAF|G2AF G~E3|
AF~F2 d2fa|gbag fd~d2|eA~A2 aged|cAGE EDD2:|
af~f2 df~f2|ge~e2 deAG|FAdF GBed|cA~A2 ba^ga|
bf~f2 df~f2|ge~e2 deAG|FAdF GBed|cA(3AGE EDD2:|

